resources/src/assets/img/github.svg

<?xml version="1.0" encoding="utf-8"?>
<!-- Generated by IcoMoon.io -->
<!DOCTYPE svg PUBLIC "-//W3C//DTD SVG 1.1//EN" "http://www.w3.org/Graphics/SVG/1.1/DTD/svg11.dtd">
<svg version="1.1" xmlns="http://www.w3.org/2000/svg" xmlns:xlink="http://www.w3.org/1999/xlink" width="20" height="20" viewBox="0 0 16 16">
<path fill="#888" d="M8 0.198c-4.418 0-8 3.582-8 8 0 3.535 2.292 6.533 5.471 7.591 0.4 0.074 0.547-0.174 0.547-0.385 0-0.191-0.008-0.821-0.011-1.489-2.226 0.484-2.695-0.944-2.695-0.944-0.364-0.925-0.888-1.171-0.888-1.171-0.726-0.497 0.055-0.486 0.055-0.486 0.803 0.056 1.226 0.824 1.226 0.824 0.714 1.223 1.872 0.869 2.328 0.665 0.072-0.517 0.279-0.87 0.508-1.070-1.777-0.202-3.645-0.888-3.645-3.954 0-0.873 0.313-1.587 0.824-2.147-0.083-0.202-0.357-1.015 0.077-2.117 0 0 0.672-0.215 2.201 0.82 0.638-0.177 1.322-0.266 2.002-0.269 0.68 0.003 1.365 0.092 2.004 0.269 1.527-1.035 2.198-0.82 2.198-0.82 0.435 1.102 0.162 1.916 0.079 2.117 0.513 0.56 0.823 1.274 0.823 2.147 0 3.073-1.872 3.749-3.653 3.947 0.287 0.248 0.543 0.735 0.543 1.481 0 1.070-0.009 1.932-0.009 2.195 0 0.213 0.144 0.462 0.55 0.384 3.177-1.059 5.466-4.057 5.466-7.59 0-4.418-3.582-8-8-8z"></path>
</svg>

<?xml version="1.0" encoding="UTF-8"?>
<svg width="16px" height="16px" viewBox="0 0 16 16" version="1.1" xmlns="http://www.w3.org/2000/svg" xmlns:xlink="http://www.w3.org/1999/xlink">
    <!-- Generator: Sketch 41 (35326) - http://www.bohemiancoding.com/sketch -->
    <title>Shape</title>
    <desc>Created with Sketch.</desc>
    <defs></defs>
    <g id="Page-1" stroke="none" stroke-width="1" fill="none" fill-rule="evenodd">
        <path d="M8,0.198 C3.582,0.198 0,3.78 0,8.198 C0,11.733 2.292,14.731 5.471,15.789 C5.871,15.863 6.018,15.615 6.018,15.404 C6.018,15.213 6.01,14.583 6.007,13.915 C3.781,14.399 3.312,12.971 3.312,12.971 C2.948,12.046 2.424,11.8 2.424,11.8 C1.698,11.303 2.479,11.314 2.479,11.314 C3.282,11.37 3.705,12.138 3.705,12.138 C4.419,13.361 5.577,13.007 6.033,12.803 C6.105,12.286 6.312,11.933 6.541,11.733 C4.764,11.531 2.896,10.845 2.896,7.779 C2.896,6.906 3.209,6.192 3.72,5.632 C3.637,5.43 3.363,4.617 3.797,3.515 C3.797,3.515 4.469,3.3 5.998,4.335 C6.636,4.158 7.32,4.069 8,4.066 C8.68,4.069 9.365,4.158 10.004,4.335 C11.531,3.3 12.202,3.515 12.202,3.515 C12.637,4.617 12.364,5.431 12.281,5.632 C12.794,6.192 13.104,6.906 13.104,7.779 C13.104,10.852 11.232,11.528 9.451,11.726 C9.738,11.974 9.994,12.461 9.994,13.207 C9.994,14.277 9.985,15.139 9.985,15.402 C9.985,15.615 10.129,15.864 10.535,15.786 C13.712,14.727 16.001,11.729 16.001,8.196 C16.001,3.778 12.419,0.196 8.001,0.196 L8,0.198 Z" id="Shape" fill="#FFFFFF"></path>
    </g>
</svg>
